X:5754
T:Gan Ainm
S:Paul O'Shaugnessy
L:1/8
M:4/4
K:G
FE|DBBA B3d|c2AB cde^c|Addd dcAG|FDAD BDAF|\
DBBA BcdB|c2AB cdef|ggfg ecAF|1GBAF G2FE\
:|2GBAF G2Bd|:~g3a gdBd|(3gag fg eA~A2|\
eA~A2 eAag|fgaf gdef|~g3 a gdBd|(3gag fg eA~A2|\
eA ~A2eAag|1fgaf gdef:|2fgaf gedc||
